packages/ffe-icons/icons/open/300/lg/crop_portrait.svg

<svg xmlns="http://www.w3.org/2000/svg" height="40" viewBox="0 -960 960 960" width="40"><path d="M717.435-100.001h-474.87q-25.788 0-44.176-18.388t-18.388-44.176v-634.87q0-25.788 18.388-44.176t44.176-18.388h474.87q25.788 0 44.176 18.388t18.388 44.176v634.87q0 25.788-18.388 44.176t-44.176 18.388Zm-474.87-50.255h474.87q5.385 0 8.847-3.462 3.462-3.462 3.462-8.847v-634.87q0-5.385-3.462-8.847-3.462-3.462-8.847-3.462h-474.87q-5.385 0-8.847 3.462-3.462 3.462-3.462 8.847v634.87q0 5.385 3.462 8.847 3.462 3.462 8.847 3.462Zm-12.309 0V-809.744-150.256Z"/></svg>

<svg xmlns="http://www.w3.org/2000/svg" viewBox="0 -960 960 960" width="32" height="32"><path d="M717.43-100H242.57q-25.79 0-44.18-18.39T180-162.57v-634.86q0-25.79 18.39-44.18T242.57-860h474.86q25.79 0 44.18 18.39T780-797.43v634.86q0 25.79-18.39 44.18T717.43-100Zm-474.86-50.26h474.86q5.39 0 8.85-3.46t3.46-8.85v-634.86q0-5.39-3.46-8.85t-8.85-3.46H242.57q-5.39 0-8.85 3.46t-3.46 8.85v634.86q0 5.39 3.46 8.85t8.85 3.46Zm-12.31 0v-659.48 659.48Z"/></svg>
